X:296
T: ACH WENN ICK DOCH EIST MAL
N: E0897
O: Europa, Mitteleuropa, Deutschland, Brauschweig
R: Ehestands - Lied, Klage
M: 6/8
L: 1/16
K: G
D2 | G2F2G2A2G2A2 | B2d2B2B2A2
D2 | G2F2G2A2G2A2 | B2d2B2B2A2
c2 | B2d2d2d2c2c2 | B2d2B2B2A2
c2 | B2d2d2d2c2c2 | B2d2B2B2A2
D2 | D2c2c2c2B2G2 | G2e2e2e2d2
d2 | d2c2c2B2d2B2 | A2d2cAG4

